16x16/devices/joystick.svg

<svg xmlns="http://www.w3.org/2000/svg" width="16" height="16">
 <defs>
  <style id="current-color-scheme" type="text/css">
   .ColorScheme-Text { color:#323a41; } .ColorScheme-Highlight { color:#4285f4; } .ColorScheme-NeutralText { color:#ff9800; } .ColorScheme-PositiveText { color:#4caf50; } .ColorScheme-NegativeText { color:#f44336; }
  </style>
 </defs>
 <path style="fill:currentColor" class="ColorScheme-Text" d="M 12.236328 1.9941406 C 11.995416 1.9952656 11.772753 2.07095 11.564453 2.21875 C 11.037263 2.59505 9.9387 2.9984 8 3 C 6.0613 3 4.9627469 2.59505 4.4355469 2.21875 C 4.2272269 2.07095 4.0274962 1.9989 3.7851562 2 C 3.5428163 2.001 3.2633656 2.06595 2.9785156 2.21875 C 1.9411156 2.76525 0.98745 4.5548 0.46875 6.875 C 0.02659 8.8459 -0.13664688 11.5411 0.12695312 12.625 C 0.35653313 13.5567 0.75324438 13.96875 1.4589844 13.96875 C 2.5048844 13.95075 3.8190438 12.78645 4.6523438 11.21875 C 5.2550437 10.35085 6.6529 9.9563 8 10 C 9.347 9.953 10.744856 10.35085 11.347656 11.21875 C 12.180956 12.78645 13.495116 13.95085 14.541016 13.96875 C 15.246776 13.96875 15.643447 13.5567 15.873047 12.625 C 16.136647 11.5411 15.97341 8.8459 15.53125 6.875 C 15.01256 4.5548 14.058884 2.76525 13.021484 2.21875 C 12.736634 2.06645 12.477241 1.9930156 12.236328 1.9941406 z M 4.0332031 5 L 5.0253906 5 L 5.0253906 6 L 6.015625 6 L 6.015625 7 L 5.0253906 7 L 5.0253906 8 L 4.0332031 8 L 4.0332031 7 L 3.0410156 7 L 3.0410156 6 L 4.0332031 6 L 4.0332031 5 z M 11.470703 5 C 11.744603 5 11.966797 5.2239 11.966797 5.5 C 11.966797 5.7762 11.744603 6 11.470703 6 C 11.196803 6 10.976563 5.7762 10.976562 5.5 C 10.976562 5.2239 11.196803 5 11.470703 5 z M 10.480469 6 C 10.754369 6 10.976562 6.2239 10.976562 6.5 C 10.976562 6.7762 10.754369 7 10.480469 7 C 10.206579 7 9.984375 6.7762 9.984375 6.5 C 9.984375 6.2239 10.206579 6 10.480469 6 z M 12.462891 6 C 12.736781 6 12.958984 6.2239 12.958984 6.5 C 12.958984 6.7762 12.736781 7 12.462891 7 C 12.188991 7 11.966797 6.7762 11.966797 6.5 C 11.966797 6.2239 12.188991 6 12.462891 6 z M 11.470703 7 C 11.744603 7 11.966797 7.2239 11.966797 7.5 C 11.966797 7.7762 11.744603 8 11.470703 8 C 11.196803 8 10.976562 7.7762 10.976562 7.5 C 10.976562 7.2239 11.196803 7 11.470703 7 z"/>
</svg>

<svg width="16" height="16" version="1.1" xmlns="http://www.w3.org/2000/svg">
 <defs>
  <style id="current-color-scheme" type="text/css">
   .ColorScheme-Text { color:#5d656b; } .ColorScheme-Highlight { color:#5294e2; }
  </style>
 </defs>
<path style="fill:currentColor" class="ColorScheme-Text" d="M3.784 2.019a1.739 1.739 0 0 0-.806.219C1.941 2.784.986 4.574.468 6.894c-.443 1.971-.605 4.666-.341 5.75.23.932.627 1.344 1.333 1.344 1.045-.018 2.359-1.182 3.192-2.75.603-.868 2-1.263 3.348-1.219 1.347-.047 2.745.351 3.347 1.219.833 1.568 2.147 2.732 3.193 2.75.706 0 1.103-.412 1.333-1.344.263-1.084.1-3.779-.341-5.75-.52-2.32-1.474-4.11-2.511-4.656-.57-.305-1.04-.296-1.457 0-.527.376-1.626.78-3.564.781-1.94.002-3.038-.405-3.565-.781a1.062 1.062 0 0 0-.65-.219zm.248 3h.992v1h.992v1h-.992v1h-.992v-1H3.04v-1h.992zm7.44 0c.273 0 .495.224.495.5s-.222.5-.496.5a.498.498 0 0 1-.496-.5c0-.276.222-.5.496-.5zm-.993 1c.274 0 .496.224.496.5s-.222.5-.496.5a.498.498 0 0 1-.496-.5c0-.276.222-.5.496-.5zm1.984 0c.274 0 .496.224.496.5s-.222.5-.496.5a.498.498 0 0 1-.496-.5c0-.276.222-.5.496-.5zm-.992 1c.274 0 .496.224.496.5s-.222.5-.496.5a.498.498 0 0 1-.496-.5c0-.276.222-.5.496-.5z"/>
</svg>
